X: 41538
T: Under The Influence
R: reel
M: 4/4
K: Adorian
a2 gf ~g3 a|e/e/e dB egdc|A2 GA cd d/d/d|e2 ce dcAG|
a2 gf ~g3 a|e/e/e dB egdc|A2 GA ce e/e/e|dcAG A4:|
A2 GA c2 A2-|A2 GA d2 c2-|c2 GA cd d/d/d|e2 ce dcAG|
A2 GA c2 A2-|A2 GA d2 c2|A2 GA ce e/e/e|dcAG A4:|

